X: 7908
T: Con Tadhgo's
R: jig
M: 6/8
K: Dmajor
AFE F2E|F2 E EDE|AFE F2E|EDC d2B|
[1 AFE F2E|F2 E EDE|AFE F2E|EDC D2B:|
[2 AFE F2A|DEE D2B|AFE F2E|EDC D2B||
|:A2d dcd|ede fdB|A3 d2A|BAF DEE|
[1 A2d dcd|ede fdB|AFE F2E|EDC D2B:|
[2 A2d dcd|efg fdB|AFE F2E|EDC D2B||

